COLOR/action 16/16/view-restore.svg

<svg height="16" width="16" xmlns="http://www.w3.org/2000/svg"><g fill="#e95420" stroke-width="1.122057" transform="matrix(0 -1 1 0 0 16)"><g transform="translate(-.924999 .95)"><path d="m15.999999 3.9655205-3.968619-3.9655205c-.326887.87910273-.63255 1.8020663-.917385 2.7676513-.272413.9428774-.517774 1.8941253-.734529 2.8513317.952968-.2245266 1.900142-.4727757 2.840485-.7453753.935373-.2742015 1.86141-.5762964 2.778499-.9065375z" fill="#45a925"/><g transform="matrix(0 1 -1 0 16 0)"><path d="m.5 3.46875-.5.5c.87910273.326887 1.8019931.6331337 2.7675781.9179688.9428774.2724129 1.8943561.51762 2.8515625.734375-.0532543-.2260295-.1218026-.4484644-.1777344-.6738282-.727501-.1755488-1.4549887-.3528622-2.1738281-.5605468-.965585-.2848351-1.8884754-.5910818-2.7675781-.9179688z" fill="#030303" opacity=".2"/><path d="m3.9648438 0-.5.5.00195.001953c.3302442.9170891.6320516 1.8419709.9062531 2.7773439.2079431.717308.388476 1.4431713.5683593 2.1679687.2267376.0547127.4502917.1223248.6777344.1738282-.2245266-.952968-.4734941-1.9014539-.7460937-2.8417969-.2742015-.935373-.5760089-1.86025477-.90625-2.77734377z" fill="#fff" opacity=".3"/></g></g><g transform="matrix(0 1 -1 0 15.072071 -.928906)"><path d="m15.999999 3.9645433-3.968619-3.9655205c-.326887.87910273-.63255 1.8020663-.917385 2.7676513-.272413.9428774-.517774 1.8941253-.734529 2.8513317.952968-.2245266 1.900142-.4727757 2.840485-.7453753.935373-.2742015 1.86141-.5762964 2.778499-.9065375z" fill="#45a925"/><g transform="matrix(-1 0 0 1 15.999023 -.001953)"><path d="m.5 3.46875-.5.5c.87910273.326887 1.8019931.6331337 2.7675781.9179688.9428774.2724129 1.8943561.51762 2.8515625.734375-.0532543-.2260295-.1218026-.4484644-.1777344-.6738282-.727501-.1755488-1.4549887-.3528622-2.1738281-.5605468-.965585-.2848351-1.8884754-.5910818-2.7675781-.9179688z" fill="#030303" opacity=".2"/><path d="m3.9648438 0-.5.5.00195.001953c.3302442.9170891.6320516 1.8419709.9062531 2.7773439.2079431.717308.388476 1.4431713.5683593 2.1679687.2267376.0547127.4502917.1223248.6777344.1738282-.2245266-.952968-.4734941-1.9014539-.7460937-2.8417969-.2742015-.935373-.5760089-1.86025477-.90625-2.77734377z" fill="#fff" opacity=".3"/></g></g><path d="m15.999999 3.9645433-3.968619-3.9655205c-.326887.87910273-.63255 1.8020663-.917385 2.7676513-.272413.9428774-.517774 1.8941253-.734529 2.8513317.952968-.2245266 1.900142-.4727757 2.840485-.7453753.935373-.2742015 1.86141-.5762964 2.778499-.9065375z" fill="#45a925" transform="matrix(0 -1 1 0 .95293 16.949999)"/><path d="m.5 3.46875-.5.5c.87910273.326887 1.8019931.6331337 2.7675781.9179688.9428774.2724129 1.8943561.51762 2.8515625.734375-.0532543-.2260295-.1218026-.4484644-.1777344-.6738282-.727501-.1755488-1.4549887-.3528622-2.1738281-.5605468-.965585-.2848351-1.8884754-.5910818-2.7675781-.9179688z" fill="#030303" opacity=".2" transform="matrix(0 1 1 0 .950977 .950976)"/><path d="m3.9648438 0-.5.5.00195.001953c.3302442.9170891.6320516 1.8419709.9062531 2.7773439.2079431.717308.388476 1.4431713.5683593 2.1679687.2267376.0547127.4502917.1223248.6777344.1738282-.2245266-.952968-.4734941-1.9014539-.7460937-2.8417969-.2742015-.935373-.5760089-1.86025477-.90625-2.77734377z" fill="#fff" opacity=".3" transform="matrix(0 1 1 0 .950977 .950976)"/><g transform="matrix(-1 0 0 -1 16.95 15.071093)"><path d="m15.999999 3.9655205-3.968619-3.9655205c-.326887.87910273-.63255 1.8020663-.917385 2.7676513-.272413.9428774-.517774 1.8941253-.734529 2.8513317.952968-.2245266 1.900142-.4727757 2.840485-.7453753.935373-.2742015 1.86141-.5762964 2.778499-.9065375z" fill="#45a925"/><g transform="matrix(0 1 -1 0 16 0)"><path d="m.5 3.46875-.5.5c.87910273.326887 1.8019931.6331337 2.7675781.9179688.9428774.2724129 1.8943561.51762 2.8515625.734375-.0532543-.2260295-.1218026-.4484644-.1777344-.6738282-.727501-.1755488-1.4549887-.3528622-2.1738281-.5605468-.965585-.2848351-1.8884754-.5910818-2.7675781-.9179688z" fill="#030303" opacity=".2"/><path d="m3.9648438 0-.5.5.00195.001953c.3302442.9170891.6320516 1.8419709.9062531 2.7773439.2079431.717308.388476 1.4431713.5683593 2.1679687.2267376.0547127.4502917.1223248.6777344.1738282-.2245266-.952968-.4734941-1.9014539-.7460937-2.8417969-.2742015-.935373-.5760089-1.86025477-.90625-2.77734377z" fill="#fff" opacity=".3"/></g></g></g></svg>

<?xml version="1.0" encoding="UTF-8" standalone="no"?>
<svg
   xmlns:dc="http://purl.org/dc/elements/1.1/"
   xmlns:cc="http://creativecommons.org/ns#"
   xmlns:rdf="http://www.w3.org/1999/02/22-rdf-syntax-ns#"
   xmlns:svg="http://www.w3.org/2000/svg"
   xmlns="http://www.w3.org/2000/svg"
   xmlns:sodipodi="http://sodipodi.sourceforge.net/DTD/sodipodi-0.dtd"
   xmlns:inkscape="http://www.inkscape.org/namespaces/inkscape"
   height="16"
   width="16"
   version="1.1"
   id="svg8"
   sodipodi:docname="2.svg"
   inkscape:version="0.92.4 (5da689c313, 2019-01-14)">
  <metadata
     id="metadata14">
    <rdf:RDF>
      <cc:Work
         rdf:about="">
        <dc:format>image/svg+xml</dc:format>
        <dc:type
           rdf:resource="http://purl.org/dc/dcmitype/StillImage" />
        <dc:title />
      </cc:Work>
    </rdf:RDF>
  </metadata>
  <defs
     id="defs12" />
  <sodipodi:namedview
     pagecolor="#ffffff"
     bordercolor="#666666"
     borderopacity="1"
     objecttolerance="10"
     gridtolerance="10"
     guidetolerance="10"
     inkscape:pageopacity="0"
     inkscape:pageshadow="2"
     inkscape:window-width="1920"
     inkscape:window-height="1016"
     id="namedview10"
     showgrid="true"
     inkscape:zoom="52.437503"
     inkscape:cx="10.142842"
     inkscape:cy="7.9100944"
     inkscape:window-x="0"
     inkscape:window-y="27"
     inkscape:window-maximized="1"
     inkscape:current-layer="g867">
    <inkscape:grid
       type="xygrid"
       id="grid820" />
  </sodipodi:namedview>
  <g
     fill="#e95420"
     transform="matrix(0 -1 1 0 0 16)"
     id="g6">
    <g
       id="g818"
       transform="translate(-0.9249988,0.95)">
      <path
         style="fill:#45a925;fill-opacity:1;stroke-width:1.12205684"
         inkscape:connector-curvature="0"
         id="path4"
         d="M 15.999999,3.9655205 12.03138,0 C 11.704493,0.87910273 11.39883,1.8020663 11.113995,2.7676513 10.841582,3.7105287 10.596221,4.6617766 10.379466,5.618983 11.332434,5.3944564 12.279608,5.1462073 13.219951,4.8736077 14.155324,4.5994062 15.081361,4.2973113 15.99845,3.9670702 Z"
         sodipodi:nodetypes="ccccccc" />
      <path
         id="path872"
         transform="rotate(90,8,8)"
         d="m 0.5,3.46875 -0.5,0.5 c 0.87910273,0.326887 1.8019931,0.6331337 2.7675781,0.9179688 0.9428774,0.2724129 1.8943561,0.51762 2.8515625,0.734375 C 5.5658863,5.3950643 5.497338,5.1726294 5.4414062,4.9472656 4.7139052,4.7717168 3.9864175,4.5944034 3.2675781,4.3867188 2.3019931,4.1018837 1.3791027,3.795637 0.5,3.46875 Z"
         style="opacity:0.2;fill:#030303;fill-opacity:1;stroke-width:1.12205684"
         inkscape:connector-curvature="0"
         sodipodi:nodetypes="ccccccc" />
      <path
         id="path877"
         transform="rotate(90,8,8)"
         d="m 3.9648438,0 -0.5,0.5 0.00195,0.001953 C 3.797038,1.4190421 4.0988454,2.3439239 4.3730469,3.2792969 4.58099,3.9966049 4.7615229,4.7224682 4.9414062,5.4472656 5.1681438,5.5019783 5.3916979,5.5695904 5.6191406,5.6210938 5.394614,4.6681258 5.1456465,3.7196399 4.8730469,2.7792969 4.5988454,1.8439239 4.297038,0.91904213 3.9667969,0.00195313 Z"
         style="opacity:0.3;fill:#ffffff;fill-opacity:1;stroke-width:1.12205684"
         inkscape:connector-curvature="0"
         sodipodi:nodetypes="ccccccccc" />
    </g>
    <g
       id="g826"
       transform="matrix(-1,0,0,1,16,0)" />
    <g
       transform="rotate(90,8.0004885,7.0715823)"
       id="g855">
      <path
         sodipodi:nodetypes="ccccccc"
         d="M 15.999999,3.9645433 12.03138,-9.772e-4 C 11.704493,0.87812553 11.39883,1.8010891 11.113995,2.7666741 10.841582,3.7095515 10.596221,4.6607994 10.379466,5.6180058 11.332434,5.3934792 12.279608,5.1452301 13.219951,4.8726305 14.155324,4.598429 15.081361,4.2963341 15.99845,3.966093 Z"
         id="path849"
         inkscape:connector-curvature="0"
         style="fill:#45a925;fill-opacity:1;stroke-width:1.12205684" />
      <g
         id="g859"
         transform="matrix(0,-1,-1,0,15.999023,15.998047)">
        <path
           id="path851"
           transform="rotate(90,8,8)"
           d="m 0.5,3.46875 -0.5,0.5 c 0.87910273,0.326887 1.8019931,0.6331337 2.7675781,0.9179688 0.9428774,0.2724129 1.8943561,0.51762 2.8515625,0.734375 C 5.5658863,5.3950643 5.497338,5.1726294 5.4414062,4.9472656 4.7139052,4.7717168 3.9864175,4.5944034 3.2675781,4.3867188 2.3019931,4.1018837 1.3791027,3.795637 0.5,3.46875 Z"
           style="opacity:0.2;fill:#030303;fill-opacity:1;stroke-width:1.12205684"
           inkscape:connector-curvature="0"
           sodipodi:nodetypes="ccccccc" />
        <path
           id="path853"
           transform="rotate(90,8,8)"
           d="m 3.9648438,0 -0.5,0.5 0.00195,0.001953 C 3.797038,1.4190421 4.0988454,2.3439239 4.3730469,3.2792969 4.58099,3.9966049 4.7615229,4.7224682 4.9414062,5.4472656 5.1681438,5.5019783 5.3916979,5.5695904 5.6191406,5.6210938 5.394614,4.6681258 5.1456465,3.7196399 4.8730469,2.7792969 4.5988454,1.8439239 4.297038,0.91904213 3.9667969,0.00195313 Z"
           style="opacity:0.3;fill:#ffffff;fill-opacity:1;stroke-width:1.12205684"
           inkscape:connector-curvature="0"
           sodipodi:nodetypes="ccccccccc" />
      </g>
    </g>
    <g
       id="g889"
       transform="rotate(180,8.0360355,8.0355465)">
      <path
         sodipodi:nodetypes="ccccccc"
         d="M 15.999999,3.9645433 12.03138,-9.772e-4 C 11.704493,0.87812553 11.39883,1.8010891 11.113995,2.7666741 10.841582,3.7095515 10.596221,4.6607994 10.379466,5.6180058 11.332434,5.3934792 12.279608,5.1452301 13.219951,4.8726305 14.155324,4.598429 15.081361,4.2963341 15.99845,3.966093 Z"
         id="path869"
         inkscape:connector-curvature="0"
         style="fill:#45a925;fill-opacity:1;stroke-width:1.12205684"
         transform="rotate(90,7.9990234,7.1201172)" />
      <g
         id="g875"
         transform="matrix(1,0,0,-1,-0.878906,15.120117)">
        <g
           id="g893">
          <path
             sodipodi:nodetypes="ccccccc"
             inkscape:connector-curvature="0"
             style="opacity:0.2;fill:#030303;fill-opacity:1;stroke-width:1.12205684"
             d="m 0.5,3.46875 -0.5,0.5 c 0.87910273,0.326887 1.8019931,0.6331337 2.7675781,0.9179688 0.9428774,0.2724129 1.8943561,0.51762 2.8515625,0.734375 C 5.5658863,5.3950643 5.497338,5.1726294 5.4414062,4.9472656 4.7139052,4.7717168 3.9864175,4.5944034 3.2675781,4.3867188 2.3019931,4.1018837 1.3791027,3.795637 0.5,3.46875 Z"
             transform="rotate(90,8,8)"
             id="path871" />
          <path
             sodipodi:nodetypes="ccccccccc"
             inkscape:connector-curvature="0"
             style="opacity:0.3;fill:#ffffff;fill-opacity:1;stroke-width:1.12205684"
             d="m 3.9648438,0 -0.5,0.5 0.00195,0.001953 C 3.797038,1.4190421 4.0988454,2.3439239 4.3730469,3.2792969 4.58099,3.9966049 4.7615229,4.7224682 4.9414062,5.4472656 5.1681438,5.5019783 5.3916979,5.5695904 5.6191406,5.6210938 5.394614,4.6681258 5.1456465,3.7196399 4.8730469,2.7792969 4.5988454,1.8439239 4.297038,0.91904213 3.9667969,0.00195313 Z"
             transform="rotate(90,8,8)"
             id="path873" />
        </g>
      </g>
      <g
         id="g867"
         transform="translate(-0.877929,1)">
        <path
           style="fill:#45a925;fill-opacity:1;stroke-width:1.12205684"
           inkscape:connector-curvature="0"
           id="path861"
           d="M 15.999999,3.9655205 12.03138,0 C 11.704493,0.87910273 11.39883,1.8020663 11.113995,2.7676513 10.841582,3.7105287 10.596221,4.6617766 10.379466,5.618983 11.332434,5.3944564 12.279608,5.1462073 13.219951,4.8736077 14.155324,4.5994062 15.081361,4.2973113 15.99845,3.9670702 Z"
           sodipodi:nodetypes="ccccccc" />
        <path
           id="path863"
           transform="rotate(90,8,8)"
           d="m 0.5,3.46875 -0.5,0.5 c 0.87910273,0.326887 1.8019931,0.6331337 2.7675781,0.9179688 0.9428774,0.2724129 1.8943561,0.51762 2.8515625,0.734375 C 5.5658863,5.3950643 5.497338,5.1726294 5.4414062,4.9472656 4.7139052,4.7717168 3.9864175,4.5944034 3.2675781,4.3867188 2.3019931,4.1018837 1.3791027,3.795637 0.5,3.46875 Z"
           style="opacity:0.2;fill:#030303;fill-opacity:1;stroke-width:1.12205684"
           inkscape:connector-curvature="0"
           sodipodi:nodetypes="ccccccc" />
        <path
           id="path865"
           transform="rotate(90,8,8)"
           d="m 3.9648438,0 -0.5,0.5 0.00195,0.001953 C 3.797038,1.4190421 4.0988454,2.3439239 4.3730469,3.2792969 4.58099,3.9966049 4.7615229,4.7224682 4.9414062,5.4472656 5.1681438,5.5019783 5.3916979,5.5695904 5.6191406,5.6210938 5.394614,4.6681258 5.1456465,3.7196399 4.8730469,2.7792969 4.5988454,1.8439239 4.297038,0.91904213 3.9667969,0.00195313 Z"
           style="opacity:0.3;fill:#ffffff;fill-opacity:1;stroke-width:1.12205684"
           inkscape:connector-curvature="0"
           sodipodi:nodetypes="ccccccccc" />
      </g>
    </g>
  </g>
</svg>
